packages/core/src/svgs/tokens/mono/PAL.svg

<svg width="24" height="24" viewBox="0 0 24 24" fill="none" xmlns="http://www.w3.org/2000/svg">
<path d="M9.07568 13.0524C9.01826 13.0917 8.97045 13.1434 8.93582 13.2037C8.90118 13.2639 8.88062 13.3313 8.87568 13.4007C8.87256 14.22 8.87442 15.0319 8.87568 15.8481C8.87568 16.387 8.52067 16.6076 8.0738 16.34C6.56879 15.4368 5.64002 14.7113 4.76939 14.1819C4.62126 14.092 4.50063 13.8719 4.50063 13.6925L4.5 5.04365C4.5 4.86427 4.62187 4.64365 4.77001 4.55364L8.8713 2.06799C8.95497 2.02335 9.04835 2 9.1432 2C9.23799 2 9.33132 2.02335 9.41503 2.06799L13.5913 4.55364C13.7401 4.64365 13.8751 4.86427 13.8751 5.04365V10.0188C13.8751 10.1987 13.7401 10.4187 13.5913 10.5094C12.1976 11.3538 10.4694 12.2075 9.07568 13.0524ZM15.1258 10.6174C15.1277 9.79872 15.1258 8.9862 15.1258 8.17057C15.1245 7.63181 15.5039 7.41055 15.9508 7.67868C17.4558 8.58182 18.3601 9.28873 19.2307 9.81811C19.3789 9.90809 19.5001 10.1282 19.5001 10.3075V18.9563C19.5001 19.1357 19.3789 19.3563 19.2302 19.4463L15.1288 21.932C15.0453 21.9767 14.9518 22 14.857 22C14.7622 22 14.6687 21.9767 14.5852 21.932L10.4182 19.4463C10.2701 19.3563 10.1251 19.1357 10.1251 18.9563V13.9813C10.1251 13.8019 10.2701 13.5812 10.4188 13.4913C11.8126 12.6469 13.5551 11.8112 14.9489 10.9669C15.0545 10.9031 15.1251 10.7456 15.1258 10.6174Z" fill="white"/>
</svg>

<svg xmlns="http://www.w3.org/2000/svg" width="24" height="24" fill="none" viewBox="0 0 24 24">
    <path fill="#fff" d="M9.076 13.052a.46.46 0 0 0-.2.349c-.003.819-.002 1.63 0 2.447 0 .539-.355.76-.802.492-1.505-.903-2.434-1.629-3.305-2.158a.63.63 0 0 1-.268-.49L4.5 5.045c0-.18.122-.4.27-.49l4.101-2.486a.58.58 0 0 1 .544 0l4.176 2.486c.15.09.284.31.284.49v4.975c0 .18-.135.4-.284.49-1.393.845-3.122 1.698-4.515 2.543m6.05-2.435c.002-.818 0-1.63 0-2.446-.002-.54.378-.76.825-.492 1.505.903 2.41 1.61 3.28 2.14.148.09.27.31.27.488v8.65c0 .179-.122.4-.27.49l-4.102 2.485a.58.58 0 0 1-.544 0l-4.167-2.486c-.148-.09-.293-.31-.293-.49v-4.975c0-.18.145-.4.294-.49 1.394-.844 3.136-1.68 4.53-2.524.106-.064.176-.221.177-.35"/>
</svg>
